X: 74
T: the Old Bush
R: reel
Z: 2012 John Chambers <jc@trillian.mit.edu>
B: "100 Essential Irish Session Tunes" 1995 Dave Mallinson, ed.
N: Both parts end on a C chord, but Am sounds better.
M: 4/4
L: 1/8
K: Ador
G |\
"Am"A2GA cAAG | "D"Adde fdec | "Am"A2GA cAAB | "D"dfed cAdc |
"Am"A2GA cAAG | "D"Add^c "G"defg | "D"afeg "Bm"fde^c | "G"dfed "Am"cA A :|
|: g |\
"C"efgf edcd | efge c3d | efge afge | "D"dfed cAAg |
"C"efgf edcd | efge defg | "D"afge "Bm"fde^c | "G"dfed "Am"cA A :|

%%sep 2 1 500
%%sep 1 1 500

